X: 148115
T: A GAELIC AIR
Q: "Slow."
R: March.
%R: air, jig, march
B: James Kerr "Merry Melodies" v.1 p.48 s.1 #15
Z: 2016 John Chambers <jc:trillian.mit.edu>
M: 6/8
L: 1/8
K: G
|:\
vG2vG GBG | A2A Age | G2G GBG | g>eg Te2ud |\
vG2vG GBG | A2A AgA | G2G GBG | g>eg Te2ud ::
d>eg a>ga | b>ag ged | d>eg aga | b>ag ug2ue |\
d>eg a>ga | b>ag ged | e>dc BAG | g>eg Te2ud :|

%%sep 1 1 500
%%sep 1 1 500

